X:1
T:Title
%%score { ( 1 3 ) | ( 2 4 ) }
L:1/8
Q:1/4=94
M:4/4
K:G
V:1 treble nm="Grand Piano"
V:3 treble 
V:2 bass 
V:4 bass 
V:1
 B2 [Dd]2 A2 c2 | z4 G4[K:bass] | E2[K:treble] G2 D2 [DB]2 | [G,^CE]2 [CGA]2 [DFA]4 | %4
w: Harry~Dixon~Loes * * *||||
 [DGB]2 [DGd]2 [DFA]2 [DFc]2 | [DGB]2 [CFA]2 [B,G]2- [B,=FG]2 | [EG]2 [Ge]2 [Gd]2 [B,GB]2 | %7
w: |||
 [^CGA]2 [=CFA]2 [B,G]4 | [Fd]2 [Fc]2 E F2 c | B2 G2 D4 | E2 [Ge]2 [Gd] [GB]2 [GB] | %11
w: ||||
 [G^c]2 [Gc]2 d2- [Ad]2 | d2 B2 [^DB]2 [B,FA]2 | [B,EG][B,FG][CEG][A,^DG] [B,=DG]4 | %14
w: |||
 [EG]2 [Ge]2 [Gd] [DGB]2 [B,EG] | [^CGA]2 [=CFA]2 [G,B,G]4 |] %16
w: ||
V:2
 [G,D]2 [B,,G,]2 [D,F,D]2 [F,A,D]2 | z4 [B,E]4 | [C,G,C]2 [E,G,C]2 [G,B,]2 [G,,G,]2 | %3
 A,,2 A,,2 D,4 | G,2 B,2 C2 A,2 | G,2 ^D,2 E,2 =D,2 | [C,C]2 [C,C]2 [D,B,]2 E,2 | A,,2 D,2 G,4 | %8
 [D,A,]2 [D,A,]2 [D,F,C] [D,A,C]2 [F,A,D] | [G,D]2 [G,B,D]2 [G,B,]4 | %10
 [C,C]2 [C,C]2 [G,B,] [G,D]2 [E,E] | z4 A,2 z2 | [G,B,G]2 [G,D]2[K:bass] [B,,F,]2 ^D,2 | %13
 E,D,C,C, G,,4 | [C,C]2 [C,C]2 [D,B,] D,2 E, | A,,2 D,2 G,,4 |] %16
V:3
 x8 | B2 A2 z2[K:bass] B,,2 | x2[K:treble] x6 | x8 | x8 | z4 E2 z2 | x8 | x8 | x8 | x8 | x8 | %11
 z4 F2 z2 | x8 | x8 | x8 | x8 |] %16
V:4
 x8 | [G,D]2 [F,B,^D]2 E,2 z2 | x8 | x8 | x8 | x8 | x8 | x8 | x8 | x8 | x8 | %11
 [A,E]2 [A,,A,]2 D,2- [D,C]2 | x4[K:bass] x4 | x8 | x8 | x8 |] %16

